X:1
T:Title
%%score ( 1 2 ) 3
L:1/8
Q:1/4=103
M:4/4
K:Eb
V:1 treble nm="Grand Piano, Soprano"
V:2 treble 
V:3 bass nm="Choir Pad, To the Help of the Lord"
V:1
 B,2 E2 E>G B2 | B>B c2 G2 B2- | B2 [Ee]2 [EB]>[EB] [DA]2 | [EG]>[EG] [EB][EB] [EG]2 [DF]2- | %4
w: By~Carrie~B.~Wilson~Adams * * * *||||
 [DF][DF] [DG]2 [DG]>[DF] [CE]2 | [EG][EG] [FB]2 [DB]>[FA] [EG]2 | %6
w: ||
 [GB]>[Gc] [Fd]2 [DB]>[Fd] [Bf]2 | [Fd]2 [Ec]2 [Ec][Fd] [DB]2 | z2 e6 | B2 c6 | %10
w: ||||
 (3FGA B2 [Ad]>[Ac] [GB]2 | z2 G6 | z2 [EA]2 [EA]>[EA] [EA][EA] | z [EA] [EB]2 [GB]2 [_Gc]2- | %14
w: ||||
 [Gc][_Ge] [=Ge]2 G>A B2 | [EB]2 [Ec]2 d-[Ad] [Ge]2- | [Ge]6 z2 |] %17
w: |||
V:2
 x8 | x8 | x8 | x8 | x8 | x8 | x8 | x8 | [AB]>A G2 G>G G2 | z G A2 A2 A2 | x8 | [FA]2 E2 E2 E2 | %12
 x8 | x8 | x8 | z4 .F2 z2 | x8 |] %17
V:3
 B,,2 E,2 E,>G, B,2 | B,>B, C2 G,2 B,2- | B,2 [G,B,]2 [G,B,]>[G,B,] [F,B,]2 | %3
 [E,B,]>[E,B,] [G,B,][G,B,] [E,B,]2 [B,,B,]2- | [B,,B,][B,,A,] [=B,,G,]2 [B,,G,]>[B,,G,] [C,G,]2 | %5
 [C,C][C,C] [D,B,]2 [B,,B,]>[D,B,] [E,B,]2 | [=E,B,]>[E,B,] [F,B,]2 [F,B,]>[F,B,] [F,D]2 | %7
 [F,B,]2 [F,=A,]2 [F,A,][F,A,] [B,,B,]2 | [B,D]>[B,D] [E,E]2 [E,E]>[E,E] [E,E]2 | %9
 z [E,E] [A,E]2 [A,E]2 [A,E]2 | (3F,G,A, B,2[K:treble] [B,F]>[B,E][K:bass] [B,D]2 | %11
 [B,,B,]2 [E,B,]2 [E,B,]2 [E,B,]2 | z2 [C,A,]2 [C,A,]>[C,A,] [=B,,_G,][B,,G,] | %13
 z [=B,,_G,] [_B,,=G,]2 [B,E]2 [=A,E]2- | [A,E][=A,C] [B,E]2 G,>_A, B,2 | %15
 [G,B,]2 [F,=A,]2 B,2 [E,B,]2- | [E,B,]6 z2 |] %17

